icon_installer/data/icons/scalable/actions/show-overlapping-windows-symbolic.svg

<?xml version="1.0" encoding="UTF-8"?>
<svg height="16px" viewBox="0 0 16 16" width="16px" xmlns="http://www.w3.org/2000/svg">
    <g fill="#222222">
        <path d="m 3 1 c -1.644531 0 -3 1.355469 -3 3 v 4 c 0 1.644531 1.355469 3 3 3 h 2 v -2 h -2 c -0.570312 0 -1 -0.429688 -1 -1 v -4 c 0 -0.570312 0.429688 -1 1 -1 h 6 c 0.570312 0 1 0.429688 1 1 v 2 h 2 v -2 c 0 -1.644531 -1.355469 -3 -3 -3 z m 0 0"/>
        <path d="m 7 5 c -1.644531 0 -3 1.355469 -3 3 v 4 c 0 1.644531 1.355469 3 3 3 h 6 c 1.644531 0 3 -1.355469 3 -3 v -4 c 0 -1.644531 -1.355469 -3 -3 -3 z m 0 2 h 6 c 0.570312 0 1 0.429688 1 1 v 4 c 0 0.570312 -0.429688 1 -1 1 h -6 c -0.570312 0 -1 -0.429688 -1 -1 v -4 c 0 -0.570312 0.429688 -1 1 -1 z m 0 0"/>
    </g>
</svg>

<svg xmlns="http://www.w3.org/2000/svg" width="16" height="16"><g fill="#222"><path d="M3 1C1.355 1 0 2.355 0 4v4c0 1.645 1.355 3 3 3h2V9H3c-.57 0-1-.43-1-1V4c0-.57.43-1 1-1h6c.57 0 1 .43 1 1v2h2V4c0-1.645-1.355-3-3-3zm0 0"/><path d="M7 5C5.355 5 4 6.355 4 8v4c0 1.645 1.355 3 3 3h6c1.645 0 3-1.355 3-3V8c0-1.645-1.355-3-3-3zm0 2h6c.57 0 1 .43 1 1v4c0 .57-.43 1-1 1H7c-.57 0-1-.43-1-1V8c0-.57.43-1 1-1zm0 0"/></g></svg>
